(Projekt Valovi_Chair_all_brakets)
(Erstellt mit Estlcam Version 11 Build 11.244)
(Laufzeit ca. 00:02:08 Stunden)

(Benoetigte Werkzeuge:)
(Endmill 6mm)

G90
T6 M06
M03
G00 Z5.0000


(Nr. 1: Part 9)
G00 X29.9081 Y163.3611
G00 Z0.5000
G01 Z0.0000 F1200 S17000
G01 Z-4.0000
G01 X25.9651 Y127.8077 F3000
G01 X14.7081 Y67.0266
G01 X14.7315 Y40.5446
G03 X27.7943 Y28.1271 I27.7986 J41.2112
G01 X38.2960 Y28.1344
G01 X48.2960 Y28.1413
G01 X58.7977 Y28.1486
G03 X71.2022 Y40.5705 I58.1445 J41.2053
G01 X71.2216 Y50.1403
G03 X68.2217 Y53.1564 I68.2216 J50.1564
G01 X50.2685
G03 X48.0983 Y52.2509 I50.3157 J49.9901
G02 X47.8199 Y52.6671 I47.9996 J52.4861
G03 X48.6728 Y54.7677 I45.6487 J54.7721
G01 Y63.6174
G03 X47.7822 Y65.7706 I45.5398 J63.5823
G02 X48.1405 Y66.1099 I47.9950 J65.9047
G03 X50.2685 Y65.2306 I50.2735 J68.2574
G01 X68.2217
G03 X71.2217 Y68.2306 I68.2217 J68.2306
G01 Y81.9851
G01 X73.5203 Y95.5088
G01 X75.1960 Y105.3674
G01 X80.6312 Y137.3440
G01 X86.3010 Y193.2323
G01 X86.3160 Y193.4539
G01 X88.2098 Y249.5961
G01 Y249.8183
G01 X86.3163 Y305.9605
G01 X86.3013 Y306.1821
G01 X81.1287 Y357.1657
G01 X80.6315 Y362.0665
G01 X80.6016 Y362.2866
G01 X79.7880 Y367.0698
G01 X71.2214 Y417.4307
G01 X71.2140 Y431.1797
G03 X68.2140 Y434.1779 I68.2140 J431.1779
G01 X50.2687
G03 X48.0913 Y433.2701 I50.3246 J430.9786
G02 X47.8144 Y433.6831 I48.0001 J433.5082
G03 X48.6730 Y435.7912 I45.6411 J435.7971
G01 Y444.6427
G03 X47.7821 Y446.7945 I45.5456 J444.6083
G02 X47.8583 Y447.1391 I48.0034 J446.9263
G02 X48.2672 Y447.0213 I48.0062 J446.8841
G03 X50.2687 Y446.2560 I50.2687 J449.2560
G01 X68.2042
G03 X71.2042 Y449.2573 I68.2042 J449.2560
G01 X71.1704 Y459.2910
G03 X58.1355 Y471.2834 I58.1210 J458.1873
G01 X47.9629
G01 X37.9629
G01 X27.7903
G03 X14.7276 Y458.8342 I27.8042 J458.1910
G01 X14.7081 Y432.3854
G01 X14.7605 Y431.8146
G01 X25.0516 Y376.5097
G01 X25.9670 Y371.5907
G01 X25.9651 Y371.6008
G01 X26.5147 Y366.6450
G01 X32.7063 Y310.8203
G01 X34.9560 Y249.7052
G01 X32.7063 Y188.5921
G01 X31.0104 Y173.3001
G01 X29.9081 Y163.3611
G01 Z-8.0000 F1200
G01 X25.9651 Y127.8077 F3000
G01 X14.7081 Y67.0266
G01 X14.7315 Y40.5446
G03 X27.7943 Y28.1271 I27.7986 J41.2112
G01 X38.2960 Y28.1344
G01 X48.2960 Y28.1413
G01 X58.7977 Y28.1486
G03 X71.2022 Y40.5705 I58.1445 J41.2053
G01 X71.2216 Y50.1403
G03 X68.2217 Y53.1564 I68.2216 J50.1564
G01 X50.2685
G03 X48.0983 Y52.2509 I50.3157 J49.9901
G02 X47.8199 Y52.6671 I47.9996 J52.4861
G03 X48.6728 Y54.7677 I45.6487 J54.7721
G01 Y63.6174
G03 X47.7822 Y65.7706 I45.5398 J63.5823
G02 X48.1405 Y66.1099 I47.9950 J65.9047
G03 X50.2685 Y65.2306 I50.2735 J68.2574
G01 X68.2217
G03 X71.2217 Y68.2306 I68.2217 J68.2306
G01 Y81.9851
G01 X73.5203 Y95.5088
G01 X75.1960 Y105.3674
G01 X80.6312 Y137.3440
G01 X86.3010 Y193.2323
G01 X86.3160 Y193.4539
G01 X88.2098 Y249.5961
G01 Y249.8183
G01 X86.3163 Y305.9605
G01 X86.3013 Y306.1821
G01 X81.1287 Y357.1657
G01 X80.6315 Y362.0665
G01 X80.6016 Y362.2866
G01 X79.7880 Y367.0698
G01 X71.2214 Y417.4307
G01 X71.2140 Y431.1797
G03 X68.2140 Y434.1779 I68.2140 J431.1779
G01 X50.2687
G03 X48.0913 Y433.2701 I50.3246 J430.9786
G02 X47.8144 Y433.6831 I48.0001 J433.5082
G03 X48.6730 Y435.7912 I45.6411 J435.7971
G01 Y444.6427
G03 X47.7821 Y446.7945 I45.5456 J444.6083
G02 X47.8583 Y447.1391 I48.0034 J446.9263
G02 X48.2672 Y447.0213 I48.0062 J446.8841
G03 X50.2687 Y446.2560 I50.2687 J449.2560
G01 X68.2042
G03 X71.2042 Y449.2573 I68.2042 J449.2560
G01 X71.1704 Y459.2910
G03 X58.1355 Y471.2834 I58.1210 J458.1873
G01 X47.9629
G01 X37.9629
G01 X27.7903
G03 X14.7276 Y458.8342 I27.8042 J458.1910
G01 X14.7081 Y432.3854
G01 X14.7605 Y431.8146
G01 X25.0516 Y376.5097
G01 X25.9670 Y371.5907
G01 X25.9651 Y371.6008
G01 X26.5147 Y366.6450
G01 X32.7063 Y310.8203
G01 X34.9560 Y249.7052
G01 X32.7063 Y188.5921
G01 X31.0104 Y173.3001
G01 X29.9081 Y163.3611
G01 Z-12.0000 F1200
G01 X25.9651 Y127.8077 F3000
G01 X14.7081 Y67.0266
G01 X14.7315 Y40.5446
G03 X27.7943 Y28.1271 I27.7986 J41.2112
G01 X38.2960 Y28.1344
G01 X48.2960 Y28.1413
G01 X58.7977 Y28.1486
G03 X71.2022 Y40.5705 I58.1445 J41.2053
G01 X71.2216 Y50.1403
G03 X68.2217 Y53.1564 I68.2216 J50.1564
G01 X50.2685
G03 X48.0983 Y52.2509 I50.3157 J49.9901
G02 X47.8199 Y52.6671 I47.9996 J52.4861
G03 X48.6728 Y54.7677 I45.6487 J54.7721
G01 Y63.6174
G03 X47.7822 Y65.7706 I45.5398 J63.5823
G02 X48.1405 Y66.1099 I47.9950 J65.9047
G03 X50.2685 Y65.2306 I50.2735 J68.2574
G01 X68.2217
G03 X71.2217 Y68.2306 I68.2217 J68.2306
G01 Y81.9851
G01 X73.5203 Y95.5088
G01 X75.1960 Y105.3674
G01 X80.6312 Y137.3440
G01 X86.3010 Y193.2323
G01 X86.3160 Y193.4539
G01 X88.2098 Y249.5961
G01 Y249.8183
G01 X86.3163 Y305.9605
G01 X86.3013 Y306.1821
G01 X81.1287 Y357.1657
G01 X80.6315 Y362.0665
G01 X80.6016 Y362.2866
G01 X79.7880 Y367.0698
G01 X71.2214 Y417.4307
G01 X71.2140 Y431.1797
G03 X68.2140 Y434.1779 I68.2140 J431.1779
G01 X50.2687
G03 X48.0913 Y433.2701 I50.3246 J430.9786
G02 X47.8144 Y433.6831 I48.0001 J433.5082
G03 X48.6730 Y435.7912 I45.6411 J435.7971
G01 Y444.6427
G03 X47.7821 Y446.7945 I45.5456 J444.6083
G02 X47.8583 Y447.1391 I48.0034 J446.9263
G02 X48.2672 Y447.0213 I48.0062 J446.8841
G03 X50.2687 Y446.2560 I50.2687 J449.2560
G01 X68.2042
G03 X71.2042 Y449.2573 I68.2042 J449.2560
G01 X71.1704 Y459.2910
G03 X58.1355 Y471.2834 I58.1210 J458.1873
G01 X47.9629
G01 X37.9629
G01 X27.7903
G03 X14.7276 Y458.8342 I27.8042 J458.1910
G01 X14.7081 Y432.3854
G01 X14.7605 Y431.8146
G01 X25.0516 Y376.5097
G01 X25.9670 Y371.5907
G01 X25.9651 Y371.6008
G01 X26.5147 Y366.6450
G01 X32.7063 Y310.8203
G01 X34.9560 Y249.7052
G01 X32.7063 Y188.5921
G01 X31.0104 Y173.3001
G01 X29.9081 Y163.3611
G01 Z-16.0000 F1200
G01 X25.9651 Y127.8077 F3000
G01 X14.7081 Y67.0266
G01 X14.7315 Y40.5446
G03 X27.7943 Y28.1271 I27.7986 J41.2112
G01 X38.2960 Y28.1344
G00 Z-14.0000
G01 X48.2960 Y28.1413
G01 Z-16.0000 F1200
G01 X58.7977 Y28.1486 F3000
G03 X71.2022 Y40.5705 I58.1445 J41.2053
G01 X71.2216 Y50.1403
G03 X68.2217 Y53.1564 I68.2216 J50.1564
G01 X50.2685
G03 X48.0983 Y52.2509 I50.3157 J49.9901
G02 X47.8199 Y52.6671 I47.9996 J52.4861
G03 X48.6728 Y54.7677 I45.6487 J54.7721
G01 Y63.6174
G03 X47.7822 Y65.7706 I45.5398 J63.5823
G02 X48.1405 Y66.1099 I47.9950 J65.9047
G03 X50.2685 Y65.2306 I50.2735 J68.2574
G01 X68.2217
G03 X71.2217 Y68.2306 I68.2217 J68.2306
G01 Y81.9851
G01 X73.5203 Y95.5088
G00 Z-14.0000
G01 X75.1960 Y105.3674
G01 Z-16.0000 F1200
G01 X80.6312 Y137.3440 F3000
G01 X86.3010 Y193.2323
G01 X86.3160 Y193.4539
G01 X88.2098 Y249.5961
G01 Y249.8183
G01 X86.3163 Y305.9605
G01 X86.3013 Y306.1821
G01 X81.1287 Y357.1657
G00 Z-14.0000
G01 X80.6315 Y362.0665
G01 X80.6016 Y362.2866
G01 X79.7880 Y367.0698
G01 Z-16.0000 F1200
G01 X71.2214 Y417.4307 F3000
G01 X71.2140 Y431.1797
G03 X68.2140 Y434.1779 I68.2140 J431.1779
G01 X50.2687
G03 X48.0913 Y433.2701 I50.3246 J430.9786
G02 X47.8144 Y433.6831 I48.0001 J433.5082
G03 X48.6730 Y435.7912 I45.6411 J435.7971
G01 Y444.6427
G03 X47.7821 Y446.7945 I45.5456 J444.6083
G02 X47.8583 Y447.1391 I48.0034 J446.9263
G02 X48.2672 Y447.0213 I48.0062 J446.8841
G03 X50.2687 Y446.2560 I50.2687 J449.2560
G01 X68.2042
G03 X71.2042 Y449.2573 I68.2042 J449.2560
G01 X71.1704 Y459.2910
G03 X58.1355 Y471.2834 I58.1210 J458.1873
G01 X47.9629
G00 Z-14.0000
G01 X37.9629
G01 Z-16.0000 F1200
G01 X27.7903 F3000
G03 X14.7276 Y458.8342 I27.8042 J458.1910
G01 X14.7081 Y432.3854
G01 X14.7605 Y431.8146
G01 X25.0516 Y376.5097
G00 Z-14.0000
G01 X25.9670 Y371.5907
G01 X25.9651 Y371.6008
G01 X26.5147 Y366.6450
G01 Z-16.0000 F1200
G01 X32.7063 Y310.8203 F3000
G01 X34.9560 Y249.7052
G01 X32.7063 Y188.5921
G01 X31.0104 Y173.3001
G00 Z-14.0000
G01 X29.9081 Y163.3611
G00 Z-15.5000
G01 Z-16.0000 F1200
G01 Z-18.0000
G01 X25.9651 Y127.8077 F3000
G01 X14.7081 Y67.0266
G01 X14.7315 Y40.5446
G03 X27.7943 Y28.1271 I27.7986 J41.2112
G01 X38.2960 Y28.1344
G00 Z-14.0000
G01 X48.2960 Y28.1413
G00 Z-15.5000
G01 Z-16.0000 F1200
G01 Z-18.0000
G01 X58.7977 Y28.1486 F3000
G03 X71.2022 Y40.5705 I58.1445 J41.2053
G01 X71.2216 Y50.1403
G03 X68.2217 Y53.1564 I68.2216 J50.1564
G01 X50.2685
G03 X48.0983 Y52.2509 I50.3157 J49.9901
G02 X47.8199 Y52.6671 I47.9996 J52.4861
G03 X48.6728 Y54.7677 I45.6487 J54.7721
G01 Y63.6174
G03 X47.7822 Y65.7706 I45.5398 J63.5823
G02 X48.1405 Y66.1099 I47.9950 J65.9047
G03 X50.2685 Y65.2306 I50.2735 J68.2574
G01 X68.2217
G03 X71.2217 Y68.2306 I68.2217 J68.2306
G01 Y81.9851
G01 X73.5203 Y95.5088
G00 Z-14.0000
G01 X75.1960 Y105.3674
G00 Z-15.5000
G01 Z-16.0000 F1200
G01 Z-18.0000
G01 X80.6312 Y137.3440 F3000
G01 X86.3010 Y193.2323
G01 X86.3160 Y193.4539
G01 X88.2098 Y249.5961
G01 Y249.8183
G01 X86.3163 Y305.9605
G01 X86.3013 Y306.1821
G01 X81.1287 Y357.1657
G00 Z-14.0000
G01 X80.6315 Y362.0665
G01 X80.6016 Y362.2866
G01 X79.7880 Y367.0698
G00 Z-15.5000
G01 Z-16.0000 F1200
G01 Z-18.0000
G01 X71.2214 Y417.4307 F3000
G01 X71.2140 Y431.1797
G03 X68.2140 Y434.1779 I68.2140 J431.1779
G01 X50.2687
G03 X48.0913 Y433.2701 I50.3246 J430.9786
G02 X47.8144 Y433.6831 I48.0001 J433.5082
G03 X48.6730 Y435.7912 I45.6411 J435.7971
G01 Y444.6427
G03 X47.7821 Y446.7945 I45.5456 J444.6083
G02 X47.8583 Y447.1391 I48.0034 J446.9263
G02 X48.2672 Y447.0213 I48.0062 J446.8841
G03 X50.2687 Y446.2560 I50.2687 J449.2560
G01 X68.2042
G03 X71.2042 Y449.2573 I68.2042 J449.2560
G01 X71.1704 Y459.2910
G03 X58.1355 Y471.2834 I58.1210 J458.1873
G01 X47.9629
G00 Z-14.0000
G01 X37.9629
G00 Z-15.5000
G01 Z-16.0000 F1200
G01 Z-18.0000
G01 X27.7903 F3000
G03 X14.7276 Y458.8342 I27.8042 J458.1910
G01 X14.7081 Y432.3854
G01 X14.7605 Y431.8146
G01 X25.0516 Y376.5097
G00 Z-14.0000
G01 X25.9670 Y371.5907
G01 X25.9651 Y371.6008
G01 X26.5147 Y366.6450
G00 Z-15.5000
G01 Z-16.0000 F1200
G01 Z-18.0000
G01 X32.7063 Y310.8203 F3000
G01 X34.9560 Y249.7052
G01 X32.7063 Y188.5921
G01 X31.0104 Y173.3001
G00 Z-14.0000
G01 X29.9081 Y163.3611
G00 Z5.0000
G00 X0.0000 Y0.0000

M05
M30
