(Projekt Valovi_Chair_braket_vs06)
(Erstellt mit Estlcam Version 11 Build 11.244)
(Laufzeit ca. 00:02:00 Stunden)

(Benoetigte Werkzeuge:)
(Endmill 6mm)

G90
T6 M06
M03
G00 Z5.0000


(Nr. 1: Part 8)
G00 X102.7821 Y55.6755
G00 Z0.5000
G01 Z0.0000 F1200 S17000
G01 Z-4.0000
G01 Y45.5015 F3000
G03 X115.2778 Y32.3899 I115.9244 J45.5163
G01 X141.7345 Y32.3693
G01 X142.3056 Y32.4218
G01 X202.5316 Y43.6302
G01 X202.5214 Y43.6283
G01 X217.8109 Y45.3237
G01 X227.7500 Y46.4258
G01 X263.2986 Y50.3678
G01 X324.4098 Y52.6177
G01 X385.5209 Y50.3678
G01 X421.0713 Y46.4258
G01 X431.0103 Y45.3237
G01 X446.3007 Y43.6283
G01 X507.0854 Y32.3693
G01 X533.5729 Y32.3925
G03 X546.0394 Y45.5045 I532.9033 J45.5115
G01 X546.0354 Y50.8408
G01 X546.0279 Y60.8408
G01 X546.0187 Y73.2277
G01 X546.0162 Y76.5134
G03 X544.0073 Y82.8438 I533.0664 J75.8878
G03 X533.5487 Y88.9637 I532.9024 J75.8626
G01 X523.9268 Y88.9842
G03 X520.9104 Y85.9842 I523.9104 J85.9842
G01 Y67.9610
G03 X521.8197 Y65.7885 I524.0649 J68.0047
G02 X521.4857 Y65.5671 I521.6300 J65.7119
G03 X519.3698 Y66.4355 I519.3647 J63.4110
G01 X510.4756
G03 X508.3186 Y65.5372 I510.5039 J63.3286
G02 X508.0447 Y65.8211 I508.2105 J65.7070
G03 X508.9350 Y67.9610 I505.9046 J67.9666
G01 Y85.9842
G03 X505.9350 Y88.9842 I505.9350 J85.9842
G01 X492.1354
G01 X436.7776 Y98.3931
G01 X380.8872 Y104.0619
G01 X380.6657 Y104.0769
G01 X329.4432 Y105.8056
G01 X324.5201 Y105.9717
G01 X324.2978
G01 X319.4488 Y105.8081
G01 X268.1522 Y104.0769
G01 X267.9307 Y104.0619
G01 X212.0429 Y98.3931
G01 X211.8228 Y98.3632
G01 X156.6818 Y88.9837
G01 X142.8864 Y88.9762
G03 X139.8881 Y85.9762 I142.8881 J85.9762
G01 Y67.9605
G03 X140.7989 Y65.7833 I143.0644 J68.0101
G02 X140.4733 Y65.5584 I140.6084 J65.7110
G03 X138.3476 Y66.4350 I138.3422 J63.4059
G01 X129.4507
G03 X127.2964 Y65.5377 I129.4773 J63.3361
G02 X127.1270 Y65.5177 I127.1902 J65.7090
G01 X127.0155 Y65.6021
G02 X127.1435 Y65.9578 I127.2451 J65.7204
G03 X127.9101 Y67.9608 I124.9101 J67.9608
G01 Y85.9660
G03 X124.9086 Y88.9660 I124.9101 J85.9660
G01 X114.8221 Y88.9314
G03 X102.7821 Y75.8495 I115.9276 J75.8325
G01 Y65.6755
G01 Y55.6755
G01 Z-8.0000 F1200
G01 Y45.5015 F3000
G03 X115.2778 Y32.3899 I115.9244 J45.5163
G01 X141.7345 Y32.3693
G01 X142.3056 Y32.4218
G01 X202.5316 Y43.6302
G01 X202.5214 Y43.6283
G01 X217.8109 Y45.3237
G01 X227.7500 Y46.4258
G01 X263.2986 Y50.3678
G01 X324.4098 Y52.6177
G01 X385.5209 Y50.3678
G01 X421.0713 Y46.4258
G01 X431.0103 Y45.3237
G01 X446.3007 Y43.6283
G01 X507.0854 Y32.3693
G01 X533.5729 Y32.3925
G03 X546.0394 Y45.5045 I532.9033 J45.5115
G01 X546.0354 Y50.8408
G01 X546.0279 Y60.8408
G01 X546.0187 Y73.2277
G01 X546.0162 Y76.5134
G03 X544.0073 Y82.8438 I533.0664 J75.8878
G03 X533.5487 Y88.9637 I532.9024 J75.8626
G01 X523.9268 Y88.9842
G03 X520.9104 Y85.9842 I523.9104 J85.9842
G01 Y67.9610
G03 X521.8197 Y65.7885 I524.0649 J68.0047
G02 X521.4857 Y65.5671 I521.6300 J65.7119
G03 X519.3698 Y66.4355 I519.3647 J63.4110
G01 X510.4756
G03 X508.3186 Y65.5372 I510.5039 J63.3286
G02 X508.0447 Y65.8211 I508.2105 J65.7070
G03 X508.9350 Y67.9610 I505.9046 J67.9666
G01 Y85.9842
G03 X505.9350 Y88.9842 I505.9350 J85.9842
G01 X492.1354
G01 X436.7776 Y98.3931
G01 X380.8872 Y104.0619
G01 X380.6657 Y104.0769
G01 X329.4432 Y105.8056
G01 X324.5201 Y105.9717
G01 X324.2978
G01 X319.4488 Y105.8081
G01 X268.1522 Y104.0769
G01 X267.9307 Y104.0619
G01 X212.0429 Y98.3931
G01 X211.8228 Y98.3632
G01 X156.6818 Y88.9837
G01 X142.8864 Y88.9762
G03 X139.8881 Y85.9762 I142.8881 J85.9762
G01 Y67.9605
G03 X140.7989 Y65.7833 I143.0644 J68.0101
G02 X140.4733 Y65.5584 I140.6084 J65.7110
G03 X138.3476 Y66.4350 I138.3422 J63.4059
G01 X129.4507
G03 X127.2964 Y65.5377 I129.4773 J63.3361
G02 X127.1270 Y65.5177 I127.1902 J65.7090
G01 X127.0155 Y65.6021
G02 X127.1435 Y65.9578 I127.2451 J65.7204
G03 X127.9101 Y67.9608 I124.9101 J67.9608
G01 Y85.9660
G03 X124.9086 Y88.9660 I124.9101 J85.9660
G01 X114.8221 Y88.9314
G03 X102.7821 Y75.8495 I115.9276 J75.8325
G01 Y65.6755
G01 Y55.6755
G01 Z-12.0000 F1200
G01 Y45.5015 F3000
G03 X115.2778 Y32.3899 I115.9244 J45.5163
G01 X141.7345 Y32.3693
G01 X142.3056 Y32.4218
G01 X202.5316 Y43.6302
G01 X202.5214 Y43.6283
G01 X217.8109 Y45.3237
G01 X227.7500 Y46.4258
G01 X263.2986 Y50.3678
G01 X324.4098 Y52.6177
G01 X385.5209 Y50.3678
G01 X421.0713 Y46.4258
G01 X431.0103 Y45.3237
G01 X446.3007 Y43.6283
G01 X507.0854 Y32.3693
G01 X533.5729 Y32.3925
G03 X546.0394 Y45.5045 I532.9033 J45.5115
G01 X546.0354 Y50.8408
G01 X546.0279 Y60.8408
G01 X546.0187 Y73.2277
G01 X546.0162 Y76.5134
G03 X544.0073 Y82.8438 I533.0664 J75.8878
G03 X533.5487 Y88.9637 I532.9024 J75.8626
G01 X523.9268 Y88.9842
G03 X520.9104 Y85.9842 I523.9104 J85.9842
G01 Y67.9610
G03 X521.8197 Y65.7885 I524.0649 J68.0047
G02 X521.4857 Y65.5671 I521.6300 J65.7119
G03 X519.3698 Y66.4355 I519.3647 J63.4110
G01 X510.4756
G03 X508.3186 Y65.5372 I510.5039 J63.3286
G02 X508.0447 Y65.8211 I508.2105 J65.7070
G03 X508.9350 Y67.9610 I505.9046 J67.9666
G01 Y85.9842
G03 X505.9350 Y88.9842 I505.9350 J85.9842
G01 X492.1354
G01 X436.7776 Y98.3931
G01 X380.8872 Y104.0619
G01 X380.6657 Y104.0769
G01 X329.4432 Y105.8056
G01 X324.5201 Y105.9717
G01 X324.2978
G01 X319.4488 Y105.8081
G01 X268.1522 Y104.0769
G01 X267.9307 Y104.0619
G01 X212.0429 Y98.3931
G01 X211.8228 Y98.3632
G01 X156.6818 Y88.9837
G01 X142.8864 Y88.9762
G03 X139.8881 Y85.9762 I142.8881 J85.9762
G01 Y67.9605
G03 X140.7989 Y65.7833 I143.0644 J68.0101
G02 X140.4733 Y65.5584 I140.6084 J65.7110
G03 X138.3476 Y66.4350 I138.3422 J63.4059
G01 X129.4507
G03 X127.2964 Y65.5377 I129.4773 J63.3361
G02 X127.1270 Y65.5177 I127.1902 J65.7090
G01 X127.0155 Y65.6021
G02 X127.1435 Y65.9578 I127.2451 J65.7204
G03 X127.9101 Y67.9608 I124.9101 J67.9608
G01 Y85.9660
G03 X124.9086 Y88.9660 I124.9101 J85.9660
G01 X114.8221 Y88.9314
G03 X102.7821 Y75.8495 I115.9276 J75.8325
G01 Y65.6755
G01 Y55.6755
G01 Z-16.0000 F1200
G01 Y45.5015 F3000
G03 X115.2778 Y32.3899 I115.9244 J45.5163
G01 X141.7345 Y32.3693
G01 X142.3056 Y32.4218
G01 X202.5316 Y43.6302
G01 X202.5214 Y43.6283
G01 X217.8109 Y45.3237
G00 Z-14.0000
G01 X227.7500 Y46.4258
G01 Z-16.0000 F1200
G01 X263.2986 Y50.3678 F3000
G01 X324.4098 Y52.6177
G01 X385.5209 Y50.3678
G01 X421.0713 Y46.4258
G00 Z-14.0000
G01 X431.0103 Y45.3237
G01 Z-16.0000 F1200
G01 X446.3007 Y43.6283 F3000
G01 X507.0854 Y32.3693
G01 X533.5729 Y32.3925
G03 X546.0394 Y45.5045 I532.9033 J45.5115
G01 X546.0354 Y50.8408
G00 Z-14.0000
G01 X546.0279 Y60.8408
G01 Z-16.0000 F1200
G01 X546.0187 Y73.2277 F3000
G00 Z-14.0000
G01 X546.0162 Y76.5134
G03 X544.0073 Y82.8438 I533.0664 J75.8878
G01 Z-16.0000 F1200
G03 X533.5487 Y88.9637 I532.9024 J75.8626 F3000
G01 X523.9268 Y88.9842
G03 X520.9104 Y85.9842 I523.9104 J85.9842
G01 Y67.9610
G03 X521.8197 Y65.7885 I524.0649 J68.0047
G02 X521.4857 Y65.5671 I521.6300 J65.7119
G03 X519.3698 Y66.4355 I519.3647 J63.4110
G01 X510.4756
G03 X508.3186 Y65.5372 I510.5039 J63.3286
G02 X508.0447 Y65.8211 I508.2105 J65.7070
G03 X508.9350 Y67.9610 I505.9046 J67.9666
G01 Y85.9842
G03 X505.9350 Y88.9842 I505.9350 J85.9842
G01 X492.1354
G01 X436.7776 Y98.3931
G01 X380.8872 Y104.0619
G01 X380.6657 Y104.0769
G01 X329.4432 Y105.8056
G00 Z-14.0000
G01 X324.5201 Y105.9717
G01 X324.2978
G01 X319.4488 Y105.8081
G01 Z-16.0000 F1200
G01 X268.1522 Y104.0769 F3000
G01 X267.9307 Y104.0619
G01 X212.0429 Y98.3931
G01 X211.8228 Y98.3632
G01 X156.6818 Y88.9837
G01 X142.8864 Y88.9762
G03 X139.8881 Y85.9762 I142.8881 J85.9762
G01 Y67.9605
G03 X140.7989 Y65.7833 I143.0644 J68.0101
G02 X140.4733 Y65.5584 I140.6084 J65.7110
G03 X138.3476 Y66.4350 I138.3422 J63.4059
G01 X129.4507
G03 X127.2964 Y65.5377 I129.4773 J63.3361
G02 X127.1270 Y65.5177 I127.1902 J65.7090
G01 X127.0155 Y65.6021
G02 X127.1435 Y65.9578 I127.2451 J65.7204
G03 X127.9101 Y67.9608 I124.9101 J67.9608
G01 Y85.9660
G03 X124.9086 Y88.9660 I124.9101 J85.9660
G01 X114.8221 Y88.9314
G03 X102.7821 Y75.8495 I115.9276 J75.8325
G01 Y65.6755
G00 Z-14.0000
G01 Y55.6755
G00 Z-15.5000
G01 Z-16.0000 F1200
G01 Z-18.0000
G01 Y45.5015 F3000
G03 X115.2778 Y32.3899 I115.9244 J45.5163
G01 X141.7345 Y32.3693
G01 X142.3056 Y32.4218
G01 X202.5316 Y43.6302
G01 X202.5214 Y43.6283
G01 X217.8109 Y45.3237
G00 Z-14.0000
G01 X227.7500 Y46.4258
G00 Z-15.5000
G01 Z-16.0000 F1200
G01 Z-18.0000
G01 X263.2986 Y50.3678 F3000
G01 X324.4098 Y52.6177
G01 X385.5209 Y50.3678
G01 X421.0713 Y46.4258
G00 Z-14.0000
G01 X431.0103 Y45.3237
G00 Z-15.5000
G01 Z-16.0000 F1200
G01 Z-18.0000
G01 X446.3007 Y43.6283 F3000
G01 X507.0854 Y32.3693
G01 X533.5729 Y32.3925
G03 X546.0394 Y45.5045 I532.9033 J45.5115
G01 X546.0354 Y50.8408
G00 Z-14.0000
G01 X546.0279 Y60.8408
G00 Z-15.5000
G01 Z-16.0000 F1200
G01 Z-18.0000
G01 X546.0187 Y73.2277 F3000
G00 Z-14.0000
G01 X546.0162 Y76.5134
G03 X544.0073 Y82.8438 I533.0664 J75.8878
G00 Z-15.5000
G01 Z-16.0000 F1200
G01 Z-18.0000
G03 X533.5487 Y88.9637 I532.9024 J75.8626 F3000
G01 X523.9268 Y88.9842
G03 X520.9104 Y85.9842 I523.9104 J85.9842
G01 Y67.9610
G03 X521.8197 Y65.7885 I524.0649 J68.0047
G02 X521.4857 Y65.5671 I521.6300 J65.7119
G03 X519.3698 Y66.4355 I519.3647 J63.4110
G01 X510.4756
G03 X508.3186 Y65.5372 I510.5039 J63.3286
G02 X508.0447 Y65.8211 I508.2105 J65.7070
G03 X508.9350 Y67.9610 I505.9046 J67.9666
G01 Y85.9842
G03 X505.9350 Y88.9842 I505.9350 J85.9842
G01 X492.1354
G01 X436.7776 Y98.3931
G01 X380.8872 Y104.0619
G01 X380.6657 Y104.0769
G01 X329.4432 Y105.8056
G00 Z-14.0000
G01 X324.5201 Y105.9717
G01 X324.2978
G01 X319.4488 Y105.8081
G00 Z-15.5000
G01 Z-16.0000 F1200
G01 Z-18.0000
G01 X268.1522 Y104.0769 F3000
G01 X267.9307 Y104.0619
G01 X212.0429 Y98.3931
G01 X211.8228 Y98.3632
G01 X156.6818 Y88.9837
G01 X142.8864 Y88.9762
G03 X139.8881 Y85.9762 I142.8881 J85.9762
G01 Y67.9605
G03 X140.7989 Y65.7833 I143.0644 J68.0101
G02 X140.4733 Y65.5584 I140.6084 J65.7110
G03 X138.3476 Y66.4350 I138.3422 J63.4059
G01 X129.4507
G03 X127.2964 Y65.5377 I129.4773 J63.3361
G02 X127.1270 Y65.5177 I127.1902 J65.7090
G01 X127.0155 Y65.6021
G02 X127.1435 Y65.9578 I127.2451 J65.7204
G03 X127.9101 Y67.9608 I124.9101 J67.9608
G01 Y85.9660
G03 X124.9086 Y88.9660 I124.9101 J85.9660
G01 X114.8221 Y88.9314
G03 X102.7821 Y75.8495 I115.9276 J75.8325
G01 Y65.6755
G00 Z-14.0000
G01 Y55.6755
G00 Z5.0000
G00 X0.0000 Y0.0000

M05
M30
