(Projekt Valovi_Chair_braket_vs06)
(Erstellt mit Estlcam Version 11 Build 11.244)
(Laufzeit ca. 00:06:11 Stunden)

(Benoetigte Werkzeuge:)
(Endmill 6mm)

G90
T6 M06
M03
G00 Z5.0000


(Nr. 1: Part 7)
G00 X102.5821 Y55.6755
G00 Z0.5000
G01 Z0.0000 F1200 S17000
G01 Z-4.0000
G01 Y45.5015 F1800
G03 X115.2777 Y32.1899 I115.9247 J45.5168
G01 X141.7344 Y32.1693
G01 X142.3422 Y32.2251
G01 X202.5584 Y43.4317
G01 X263.3134 Y50.1682
G01 X299.0447 Y51.4837
G01 X309.0380 Y51.8517
G01 X324.4098 Y52.4176
G01 X385.5062 Y50.1682
G01 X446.2714 Y43.4303
G01 X507.0856 Y32.1693
G01 X533.5731 Y32.1925
G03 X546.2394 Y45.5046 I532.9030 J45.5120
G01 X546.2162 Y76.5136
G03 X533.5492 Y89.1637 I532.9107 J75.8573
G01 X523.9272 Y89.1842
G03 X520.7104 Y85.9842 I523.9104 J85.9842
G01 Y67.9610
G03 X521.6319 Y65.7097 I523.9354 J67.9668
G03 X519.3698 Y66.6355 I519.3583 J63.3807
G01 X510.4756
G03 X508.2155 Y65.7102 I510.4929 J63.3700
G03 X509.1350 Y67.9610 I505.9086 J67.9659
G01 Y85.9842
G03 X505.9350 Y89.1842 I505.9350 J85.9842
G01 X492.1523
G01 X436.7977 Y98.5921
G01 X423.1230 Y99.9791
G01 X413.1741 Y100.9882
G01 X380.9074 Y104.2609
G01 X380.6724 Y104.2767
G01 X324.5269 Y106.1716
G01 X324.2910
G01 X268.1455 Y104.2767
G01 X267.9106 Y104.2609
G01 X235.6456 Y100.9882
G01 X225.6966 Y99.9790
G01 X212.0228 Y98.5921
G01 X211.7893 Y98.5604
G01 X156.6680 Y89.1842
G01 X142.8863 Y89.1762
G03 X139.6881 Y85.9762 I142.8881 J85.9762
G01 Y67.9605
G03 X140.6091 Y65.7089 I142.9181 J67.9675
G03 X138.3476 Y66.6350 I138.3367 J63.3839
G01 X129.4507
G03 X127.1981 Y65.7136 I129.4618 J63.3939
G03 X128.1101 Y67.9608 I124.8648 J67.9691
G01 Y85.9660
G03 X124.9085 Y89.1660 I124.9101 J85.9660
G01 X114.7948 Y89.1296
G03 X102.5821 Y75.8495 I115.9279 J75.8320
G01 Y65.6755
G01 Y55.6755
G01 Z-8.0000 F1200
G01 Y45.5015 F1800
G03 X115.2777 Y32.1899 I115.9247 J45.5168
G01 X141.7344 Y32.1693
G01 X142.3422 Y32.2251
G01 X202.5584 Y43.4317
G01 X263.3134 Y50.1682
G01 X299.0447 Y51.4837
G01 X309.0380 Y51.8517
G01 X324.4098 Y52.4176
G01 X385.5062 Y50.1682
G01 X446.2714 Y43.4303
G01 X507.0856 Y32.1693
G01 X533.5731 Y32.1925
G03 X546.2394 Y45.5046 I532.9030 J45.5120
G01 X546.2162 Y76.5136
G03 X533.5492 Y89.1637 I532.9107 J75.8573
G01 X523.9272 Y89.1842
G03 X520.7104 Y85.9842 I523.9104 J85.9842
G01 Y67.9610
G03 X521.6319 Y65.7097 I523.9354 J67.9668
G03 X519.3698 Y66.6355 I519.3583 J63.3807
G01 X510.4756
G03 X508.2155 Y65.7102 I510.4929 J63.3700
G03 X509.1350 Y67.9610 I505.9086 J67.9659
G01 Y85.9842
G03 X505.9350 Y89.1842 I505.9350 J85.9842
G01 X492.1523
G01 X436.7977 Y98.5921
G01 X423.1230 Y99.9791
G01 X413.1741 Y100.9882
G01 X380.9074 Y104.2609
G01 X380.6724 Y104.2767
G01 X324.5269 Y106.1716
G01 X324.2910
G01 X268.1455 Y104.2767
G01 X267.9106 Y104.2609
G01 X235.6456 Y100.9882
G01 X225.6966 Y99.9790
G01 X212.0228 Y98.5921
G01 X211.7893 Y98.5604
G01 X156.6680 Y89.1842
G01 X142.8863 Y89.1762
G03 X139.6881 Y85.9762 I142.8881 J85.9762
G01 Y67.9605
G03 X140.6091 Y65.7089 I142.9181 J67.9675
G03 X138.3476 Y66.6350 I138.3367 J63.3839
G01 X129.4507
G03 X127.1981 Y65.7136 I129.4618 J63.3939
G03 X128.1101 Y67.9608 I124.8648 J67.9691
G01 Y85.9660
G03 X124.9085 Y89.1660 I124.9101 J85.9660
G01 X114.7948 Y89.1296
G03 X102.5821 Y75.8495 I115.9279 J75.8320
G01 Y65.6755
G01 Y55.6755
G01 Z-12.0000 F1200
G01 Y45.5015 F1800
G03 X115.2777 Y32.1899 I115.9247 J45.5168
G01 X141.7344 Y32.1693
G01 X142.3422 Y32.2251
G01 X202.5584 Y43.4317
G01 X263.3134 Y50.1682
G01 X299.0447 Y51.4837
G01 X309.0380 Y51.8517
G01 X324.4098 Y52.4176
G01 X385.5062 Y50.1682
G01 X446.2714 Y43.4303
G01 X507.0856 Y32.1693
G01 X533.5731 Y32.1925
G03 X546.2394 Y45.5046 I532.9030 J45.5120
G01 X546.2162 Y76.5136
G03 X533.5492 Y89.1637 I532.9107 J75.8573
G01 X523.9272 Y89.1842
G03 X520.7104 Y85.9842 I523.9104 J85.9842
G01 Y67.9610
G03 X521.6319 Y65.7097 I523.9354 J67.9668
G03 X519.3698 Y66.6355 I519.3583 J63.3807
G01 X510.4756
G03 X508.2155 Y65.7102 I510.4929 J63.3700
G03 X509.1350 Y67.9610 I505.9086 J67.9659
G01 Y85.9842
G03 X505.9350 Y89.1842 I505.9350 J85.9842
G01 X492.1523
G01 X436.7977 Y98.5921
G01 X423.1230 Y99.9791
G01 X413.1741 Y100.9882
G01 X380.9074 Y104.2609
G01 X380.6724 Y104.2767
G01 X324.5269 Y106.1716
G01 X324.2910
G01 X268.1455 Y104.2767
G01 X267.9106 Y104.2609
G01 X235.6456 Y100.9882
G01 X225.6966 Y99.9790
G01 X212.0228 Y98.5921
G01 X211.7893 Y98.5604
G01 X156.6680 Y89.1842
G01 X142.8863 Y89.1762
G03 X139.6881 Y85.9762 I142.8881 J85.9762
G01 Y67.9605
G03 X140.6091 Y65.7089 I142.9181 J67.9675
G03 X138.3476 Y66.6350 I138.3367 J63.3839
G01 X129.4507
G03 X127.1981 Y65.7136 I129.4618 J63.3939
G03 X128.1101 Y67.9608 I124.8648 J67.9691
G01 Y85.9660
G03 X124.9085 Y89.1660 I124.9101 J85.9660
G01 X114.7948 Y89.1296
G03 X102.5821 Y75.8495 I115.9279 J75.8320
G01 Y65.6755
G01 Y55.6755
G01 Z-16.0000 F1200
G01 Y45.5015 F1800
G03 X115.2777 Y32.1899 I115.9247 J45.5168
G01 X141.7344 Y32.1693
G01 X142.3422 Y32.2251
G01 X202.5584 Y43.4317
G01 X263.3134 Y50.1682
G01 X299.0447 Y51.4837
G00 Z-14.2000
G01 X309.0380 Y51.8517
G01 Z-16.0000 F1200
G01 X324.4098 Y52.4176 F1800
G01 X385.5062 Y50.1682
G01 X446.2714 Y43.4303
G01 X507.0856 Y32.1693
G01 X533.5731 Y32.1925
G03 X546.2394 Y45.5046 I532.9030 J45.5120
G01 X546.2162 Y76.5136
G03 X533.5492 Y89.1637 I532.9107 J75.8573
G01 X523.9272 Y89.1842
G03 X520.7104 Y85.9842 I523.9104 J85.9842
G01 Y67.9610
G03 X521.6319 Y65.7097 I523.9354 J67.9668
G03 X519.3698 Y66.6355 I519.3583 J63.3807
G01 X510.4756
G03 X508.2155 Y65.7102 I510.4929 J63.3700
G03 X509.1350 Y67.9610 I505.9086 J67.9659
G01 Y85.9842
G03 X505.9350 Y89.1842 I505.9350 J85.9842
G01 X492.1523
G01 X436.7977 Y98.5921
G01 X423.1230 Y99.9791
G00 Z-14.2000
G01 X413.1741 Y100.9882
G01 Z-16.0000 F1200
G01 X380.9074 Y104.2609 F1800
G01 X380.6724 Y104.2767
G01 X324.5269 Y106.1716
G01 X324.2910
G01 X268.1455 Y104.2767
G01 X267.9106 Y104.2609
G01 X235.6456 Y100.9882
G00 Z-14.2000
G01 X225.6966 Y99.9790
G01 Z-16.0000 F1200
G01 X212.0228 Y98.5921 F1800
G01 X211.7893 Y98.5604
G01 X156.6680 Y89.1842
G01 X142.8863 Y89.1762
G03 X139.6881 Y85.9762 I142.8881 J85.9762
G01 Y67.9605
G03 X140.6091 Y65.7089 I142.9181 J67.9675
G03 X138.3476 Y66.6350 I138.3367 J63.3839
G01 X129.4507
G03 X127.1981 Y65.7136 I129.4618 J63.3939
G03 X128.1101 Y67.9608 I124.8648 J67.9691
G01 Y85.9660
G03 X124.9085 Y89.1660 I124.9101 J85.9660
G01 X114.7948 Y89.1296
G03 X102.5821 Y75.8495 I115.9279 J75.8320
G01 Y65.6755
G00 Z-14.2000
G01 Y55.6755
G00 Z-15.5000
G01 Z-16.0000 F1200
G01 Z-18.2000
G01 Y45.5015 F1800
G03 X115.2777 Y32.1899 I115.9247 J45.5168
G01 X141.7344 Y32.1693
G01 X142.3422 Y32.2251
G01 X202.5584 Y43.4317
G01 X263.3134 Y50.1682
G01 X299.0447 Y51.4837
G00 Z-14.2000
G01 X309.0380 Y51.8517
G00 Z-15.5000
G01 Z-16.0000 F1200
G01 Z-18.2000
G01 X324.4098 Y52.4176 F1800
G01 X385.5062 Y50.1682
G01 X446.2714 Y43.4303
G01 X507.0856 Y32.1693
G01 X533.5731 Y32.1925
G03 X546.2394 Y45.5046 I532.9030 J45.5120
G01 X546.2162 Y76.5136
G03 X533.5492 Y89.1637 I532.9107 J75.8573
G01 X523.9272 Y89.1842
G03 X520.7104 Y85.9842 I523.9104 J85.9842
G01 Y67.9610
G03 X521.6319 Y65.7097 I523.9354 J67.9668
G03 X519.3698 Y66.6355 I519.3583 J63.3807
G01 X510.4756
G03 X508.2155 Y65.7102 I510.4929 J63.3700
G03 X509.1350 Y67.9610 I505.9086 J67.9659
G01 Y85.9842
G03 X505.9350 Y89.1842 I505.9350 J85.9842
G01 X492.1523
G01 X436.7977 Y98.5921
G01 X423.1230 Y99.9791
G00 Z-14.2000
G01 X413.1741 Y100.9882
G00 Z-15.5000
G01 Z-16.0000 F1200
G01 Z-18.2000
G01 X380.9074 Y104.2609 F1800
G01 X380.6724 Y104.2767
G01 X324.5269 Y106.1716
G01 X324.2910
G01 X268.1455 Y104.2767
G01 X267.9106 Y104.2609
G01 X235.6456 Y100.9882
G00 Z-14.2000
G01 X225.6966 Y99.9790
G00 Z-15.5000
G01 Z-16.0000 F1200
G01 Z-18.2000
G01 X212.0228 Y98.5921 F1800
G01 X211.7893 Y98.5604
G01 X156.6680 Y89.1842
G01 X142.8863 Y89.1762
G03 X139.6881 Y85.9762 I142.8881 J85.9762
G01 Y67.9605
G03 X140.6091 Y65.7089 I142.9181 J67.9675
G03 X138.3476 Y66.6350 I138.3367 J63.3839
G01 X129.4507
G03 X127.1981 Y65.7136 I129.4618 J63.3939
G03 X128.1101 Y67.9608 I124.8648 J67.9691
G01 Y85.9660
G03 X124.9085 Y89.1660 I124.9101 J85.9660
G01 X114.7948 Y89.1296
G03 X102.5821 Y75.8495 I115.9279 J75.8320
G01 Y65.6755
G00 Z-14.2000
G01 Y55.6755
G00 Z5.0000


(Nr. 2: Part 7)
G00 X102.5821 Y55.6755 Z5.0000
G00 Z0.5000
G01 Z-4.0000 F1200
G01 X102.7821 F1800
G01 Y45.5015
G03 X115.2778 Y32.3899 I115.9244 J45.5163
G01 X141.7345 Y32.3693
G01 X142.3056 Y32.4218
G01 X202.5316 Y43.6302
G01 X202.5214 Y43.6283
G01 X263.2986 Y50.3678
G01 X299.0428 Y51.6838
G01 X309.0360 Y52.0517
G01 X324.4098 Y52.6177
G01 X385.5209 Y50.3678
G01 X446.3007 Y43.6283
G01 X507.0854 Y32.3693
G01 X533.5729 Y32.3925
G03 X546.0394 Y45.5045 I532.9033 J45.5115
G01 X546.0162 Y76.5134
G03 X533.5487 Y88.9637 I532.9102 J75.8568
G01 X523.9268 Y88.9842
G03 X520.9104 Y85.9842 I523.9104 J85.9842
G01 Y67.9610
G03 X521.8197 Y65.7885 I524.0649 J68.0047
G02 X521.4857 Y65.5671 I521.6300 J65.7119
G03 X519.3698 Y66.4355 I519.3647 J63.4110
G01 X510.4756
G03 X508.3186 Y65.5372 I510.5039 J63.3286
G02 X508.0447 Y65.8211 I508.2105 J65.7070
G03 X508.9350 Y67.9610 I505.9046 J67.9666
G01 Y85.9842
G03 X505.9350 Y88.9842 I505.9350 J85.9842
G01 X492.1354
G01 X436.7776 Y98.3931
G01 X423.1087 Y99.7795
G01 X413.1597 Y100.7886
G01 X380.8872 Y104.0619
G01 X380.6657 Y104.0769
G01 X324.5201 Y105.9717
G01 X324.2978
G01 X268.1522 Y104.0769
G01 X267.9307 Y104.0619
G01 X235.6599 Y100.7886
G01 X225.7110 Y99.7795
G01 X212.0429 Y98.3931
G01 X211.8228 Y98.3632
G01 X156.6818 Y88.9837
G01 X142.8864 Y88.9762
G03 X139.8881 Y85.9762 I142.8881 J85.9762
G01 Y67.9605
G03 X140.7989 Y65.7833 I143.0644 J68.0101
G02 X140.4733 Y65.5584 I140.6084 J65.7110
G03 X138.3476 Y66.4350 I138.3422 J63.4059
G01 X129.4507
G03 X127.2964 Y65.5377 I129.4773 J63.3361
G02 X127.1270 Y65.5177 I127.1902 J65.7090
G01 X127.0155 Y65.6021
G02 X127.1435 Y65.9578 I127.2451 J65.7204
G03 X127.9101 Y67.9608 I124.9101 J67.9608
G01 Y85.9660
G03 X124.9086 Y88.9660 I124.9101 J85.9660
G01 X114.8221 Y88.9314
G03 X102.7821 Y75.8495 I115.9276 J75.8325
G01 Y65.6755
G01 Y55.6755
G01 X102.5821
G01 Z-8.0000 F1200
G01 X102.7821 F1800
G01 Y45.5015
G03 X115.2778 Y32.3899 I115.9244 J45.5163
G01 X141.7345 Y32.3693
G01 X142.3056 Y32.4218
G01 X202.5316 Y43.6302
G01 X202.5214 Y43.6283
G01 X263.2986 Y50.3678
G01 X299.0428 Y51.6838
G01 X309.0360 Y52.0517
G01 X324.4098 Y52.6177
G01 X385.5209 Y50.3678
G01 X446.3007 Y43.6283
G01 X507.0854 Y32.3693
G01 X533.5729 Y32.3925
G03 X546.0394 Y45.5045 I532.9033 J45.5115
G01 X546.0162 Y76.5134
G03 X533.5487 Y88.9637 I532.9102 J75.8568
G01 X523.9268 Y88.9842
G03 X520.9104 Y85.9842 I523.9104 J85.9842
G01 Y67.9610
G03 X521.8197 Y65.7885 I524.0649 J68.0047
G02 X521.4857 Y65.5671 I521.6300 J65.7119
G03 X519.3698 Y66.4355 I519.3647 J63.4110
G01 X510.4756
G03 X508.3186 Y65.5372 I510.5039 J63.3286
G02 X508.0447 Y65.8211 I508.2105 J65.7070
G03 X508.9350 Y67.9610 I505.9046 J67.9666
G01 Y85.9842
G03 X505.9350 Y88.9842 I505.9350 J85.9842
G01 X492.1354
G01 X436.7776 Y98.3931
G01 X423.1087 Y99.7795
G01 X413.1597 Y100.7886
G01 X380.8872 Y104.0619
G01 X380.6657 Y104.0769
G01 X324.5201 Y105.9717
G01 X324.2978
G01 X268.1522 Y104.0769
G01 X267.9307 Y104.0619
G01 X235.6599 Y100.7886
G01 X225.7110 Y99.7795
G01 X212.0429 Y98.3931
G01 X211.8228 Y98.3632
G01 X156.6818 Y88.9837
G01 X142.8864 Y88.9762
G03 X139.8881 Y85.9762 I142.8881 J85.9762
G01 Y67.9605
G03 X140.7989 Y65.7833 I143.0644 J68.0101
G02 X140.4733 Y65.5584 I140.6084 J65.7110
G03 X138.3476 Y66.4350 I138.3422 J63.4059
G01 X129.4507
G03 X127.2964 Y65.5377 I129.4773 J63.3361
G02 X127.1270 Y65.5177 I127.1902 J65.7090
G01 X127.0155 Y65.6021
G02 X127.1435 Y65.9578 I127.2451 J65.7204
G03 X127.9101 Y67.9608 I124.9101 J67.9608
G01 Y85.9660
G03 X124.9086 Y88.9660 I124.9101 J85.9660
G01 X114.8221 Y88.9314
G03 X102.7821 Y75.8495 I115.9276 J75.8325
G01 Y65.6755
G01 Y55.6755
G01 X102.5821
G01 Z-12.0000 F1200
G01 X102.7821 F1800
G01 Y45.5015
G03 X115.2778 Y32.3899 I115.9244 J45.5163
G01 X141.7345 Y32.3693
G01 X142.3056 Y32.4218
G01 X202.5316 Y43.6302
G01 X202.5214 Y43.6283
G01 X263.2986 Y50.3678
G01 X299.0428 Y51.6838
G01 X309.0360 Y52.0517
G01 X324.4098 Y52.6177
G01 X385.5209 Y50.3678
G01 X446.3007 Y43.6283
G01 X507.0854 Y32.3693
G01 X533.5729 Y32.3925
G03 X546.0394 Y45.5045 I532.9033 J45.5115
G01 X546.0162 Y76.5134
G03 X533.5487 Y88.9637 I532.9102 J75.8568
G01 X523.9268 Y88.9842
G03 X520.9104 Y85.9842 I523.9104 J85.9842
G01 Y67.9610
G03 X521.8197 Y65.7885 I524.0649 J68.0047
G02 X521.4857 Y65.5671 I521.6300 J65.7119
G03 X519.3698 Y66.4355 I519.3647 J63.4110
G01 X510.4756
G03 X508.3186 Y65.5372 I510.5039 J63.3286
G02 X508.0447 Y65.8211 I508.2105 J65.7070
G03 X508.9350 Y67.9610 I505.9046 J67.9666
G01 Y85.9842
G03 X505.9350 Y88.9842 I505.9350 J85.9842
G01 X492.1354
G01 X436.7776 Y98.3931
G01 X423.1087 Y99.7795
G01 X413.1597 Y100.7886
G01 X380.8872 Y104.0619
G01 X380.6657 Y104.0769
G01 X324.5201 Y105.9717
G01 X324.2978
G01 X268.1522 Y104.0769
G01 X267.9307 Y104.0619
G01 X235.6599 Y100.7886
G01 X225.7110 Y99.7795
G01 X212.0429 Y98.3931
G01 X211.8228 Y98.3632
G01 X156.6818 Y88.9837
G01 X142.8864 Y88.9762
G03 X139.8881 Y85.9762 I142.8881 J85.9762
G01 Y67.9605
G03 X140.7989 Y65.7833 I143.0644 J68.0101
G02 X140.4733 Y65.5584 I140.6084 J65.7110
G03 X138.3476 Y66.4350 I138.3422 J63.4059
G01 X129.4507
G03 X127.2964 Y65.5377 I129.4773 J63.3361
G02 X127.1270 Y65.5177 I127.1902 J65.7090
G01 X127.0155 Y65.6021
G02 X127.1435 Y65.9578 I127.2451 J65.7204
G03 X127.9101 Y67.9608 I124.9101 J67.9608
G01 Y85.9660
G03 X124.9086 Y88.9660 I124.9101 J85.9660
G01 X114.8221 Y88.9314
G03 X102.7821 Y75.8495 I115.9276 J75.8325
G01 Y65.6755
G01 Y55.6755
G01 X102.5821
G01 Z-16.0000 F1200
G01 X102.7821 F1800
G01 Y45.5015
G03 X115.2778 Y32.3899 I115.9244 J45.5163
G01 X141.7345 Y32.3693
G01 X142.3056 Y32.4218
G01 X202.5316 Y43.6302
G01 X202.5214 Y43.6283
G01 X263.2986 Y50.3678
G01 X299.0428 Y51.6838
G01 X299.0447 Y51.4837
G00 Z-14.2000
G01 X299.0428 Y51.6838
G01 X309.0360 Y52.0517
G01 X309.0380 Y51.8517
G01 Z-16.0000 F1200
G01 X309.0360 Y52.0517 F1800
G01 X324.4098 Y52.6177
G01 X385.5209 Y50.3678
G01 X446.3007 Y43.6283
G01 X507.0854 Y32.3693
G01 X533.5729 Y32.3925
G03 X546.0394 Y45.5045 I532.9033 J45.5115
G01 X546.0162 Y76.5134
G03 X533.5487 Y88.9637 I532.9102 J75.8568
G01 X523.9268 Y88.9842
G03 X520.9104 Y85.9842 I523.9104 J85.9842
G01 Y67.9610
G03 X521.8197 Y65.7885 I524.0649 J68.0047
G02 X521.4857 Y65.5671 I521.6300 J65.7119
G03 X519.3698 Y66.4355 I519.3647 J63.4110
G01 X510.4756
G03 X508.3186 Y65.5372 I510.5039 J63.3286
G02 X508.0447 Y65.8211 I508.2105 J65.7070
G03 X508.9350 Y67.9610 I505.9046 J67.9666
G01 Y85.9842
G03 X505.9350 Y88.9842 I505.9350 J85.9842
G01 X492.1354
G01 X436.7776 Y98.3931
G01 X423.1087 Y99.7795
G01 X423.1230 Y99.9791
G00 Z-14.2000
G01 X423.1087 Y99.7795
G01 X413.1597 Y100.7886
G01 X413.1741 Y100.9882
G01 Z-16.0000 F1200
G01 X413.1597 Y100.7886 F1800
G01 X380.8872 Y104.0619
G01 X380.6657 Y104.0769
G01 X324.5201 Y105.9717
G01 X324.2978
G01 X268.1522 Y104.0769
G01 X267.9307 Y104.0619
G01 X235.6599 Y100.7886
G01 X235.6456 Y100.9882
G00 Z-14.2000
G01 X235.6599 Y100.7886
G01 X225.7110 Y99.7795
G01 X225.6966 Y99.9790
G01 Z-16.0000 F1200
G01 X225.7110 Y99.7795 F1800
G01 X212.0429 Y98.3931
G01 X211.8228 Y98.3632
G01 X156.6818 Y88.9837
G01 X142.8864 Y88.9762
G03 X139.8881 Y85.9762 I142.8881 J85.9762
G01 Y67.9605
G03 X140.7989 Y65.7833 I143.0644 J68.0101
G02 X140.4733 Y65.5584 I140.6084 J65.7110
G03 X138.3476 Y66.4350 I138.3422 J63.4059
G01 X129.4507
G03 X127.2964 Y65.5377 I129.4773 J63.3361
G02 X127.1270 Y65.5177 I127.1902 J65.7090
G01 X127.0155 Y65.6021
G02 X127.1435 Y65.9578 I127.2451 J65.7204
G03 X127.9101 Y67.9608 I124.9101 J67.9608
G01 Y85.9660
G03 X124.9086 Y88.9660 I124.9101 J85.9660
G01 X114.8221 Y88.9314
G03 X102.7821 Y75.8495 I115.9276 J75.8325
G01 Y65.6755
G01 X102.5821
G00 Z-14.2000
G01 X102.7821
G01 Y55.6755
G01 X102.5821
G01 Z-18.2000 F1200
G01 X102.7821 F1800
G01 Y45.5015
G03 X115.2778 Y32.3899 I115.9244 J45.5163
G01 X141.7345 Y32.3693
G01 X142.3056 Y32.4218
G01 X202.5316 Y43.6302
G01 X202.5214 Y43.6283
G01 X263.2986 Y50.3678
G01 X299.0428 Y51.6838
G01 X299.0447 Y51.4837
G00 Z-14.2000
G01 X309.0380 Y51.8517
G01 Z-18.2000 F1200
G01 X309.0360 Y52.0517 F1800
G01 X324.4098 Y52.6177
G01 X385.5209 Y50.3678
G01 X446.3007 Y43.6283
G01 X507.0854 Y32.3693
G01 X533.5729 Y32.3925
G03 X546.0394 Y45.5045 I532.9033 J45.5115
G01 X546.0162 Y76.5134
G03 X533.5487 Y88.9637 I532.9102 J75.8568
G01 X523.9268 Y88.9842
G03 X520.9104 Y85.9842 I523.9104 J85.9842
G01 Y67.9610
G03 X521.8197 Y65.7885 I524.0649 J68.0047
G02 X521.4857 Y65.5671 I521.6300 J65.7119
G03 X519.3698 Y66.4355 I519.3647 J63.4110
G01 X510.4756
G03 X508.3186 Y65.5372 I510.5039 J63.3286
G02 X508.0447 Y65.8211 I508.2105 J65.7070
G03 X508.9350 Y67.9610 I505.9046 J67.9666
G01 Y85.9842
G03 X505.9350 Y88.9842 I505.9350 J85.9842
G01 X492.1354
G01 X436.7776 Y98.3931
G01 X423.1087 Y99.7795
G01 X423.1230 Y99.9791
G00 Z-14.2000
G01 X413.1741 Y100.9882
G01 Z-18.2000 F1200
G01 X413.1597 Y100.7886 F1800
G01 X380.8872 Y104.0619
G01 X380.6657 Y104.0769
G01 X324.5201 Y105.9717
G01 X324.2978
G01 X268.1522 Y104.0769
G01 X267.9307 Y104.0619
G01 X235.6599 Y100.7886
G01 X235.6456 Y100.9882
G00 Z-14.2000
G01 X225.6966 Y99.9790
G01 Z-18.2000 F1200
G01 X225.7110 Y99.7795 F1800
G01 X212.0429 Y98.3931
G01 X211.8228 Y98.3632
G01 X156.6818 Y88.9837
G01 X142.8864 Y88.9762
G03 X139.8881 Y85.9762 I142.8881 J85.9762
G01 Y67.9605
G03 X140.7989 Y65.7833 I143.0644 J68.0101
G02 X140.4733 Y65.5584 I140.6084 J65.7110
G03 X138.3476 Y66.4350 I138.3422 J63.4059
G01 X129.4507
G03 X127.2964 Y65.5377 I129.4773 J63.3361
G02 X127.1270 Y65.5177 I127.1902 J65.7090
G01 X127.0155 Y65.6021
G02 X127.1435 Y65.9578 I127.2451 J65.7204
G03 X127.9101 Y67.9608 I124.9101 J67.9608
G01 Y85.9660
G03 X124.9086 Y88.9660 I124.9101 J85.9660
G01 X114.8221 Y88.9314
G03 X102.7821 Y75.8495 I115.9276 J75.8325
G01 Y65.6755
G01 X102.5821
G00 Z-14.2000
G01 Y55.6755
G00 Z5.0000
G00 X0.0000 Y0.0000

M05
M30
